X:1
T:Se'l pensar di partire
T:Tiburtio Massaino
T:Se'l pensar di partire
C:Tiburtio Massaino
%%score [ 1 2 3 4 ]
L:1/8
Q:1/4=84
M:4/2
K:C
V:1 alto1 nm="Soprano" snm="S"
V:2 alto nm="Alto" snm="A"
V:3 tenor nm="Tenor" snm="T"
V:4 bass nm="Bass" snm="B"
V:1
 z16 |[K:D][K:treble] B6 B2 ^A4 B2 F2 | G4 F4 z8 | B6 B2 ^A4 B2 F2 | G4 F4 z8 | B6 A2 c4 d2 B2- | %6
w: |Se'l pen- sar di par-|ti- re,|Mi con- du- ce al mo-|ri- re,|Mi con- du- ce al mo-|
 B2 c3 A d4 c2 B4- | B4 ^A4 z4 F4 | A6 A2 B4 F4 | A4 B4 B4 A4 | B4 c4 d8 | c8 z2 A2 F2 d2- | %12
w: * ri- * * * *|* re, Co-|me vi- vro lon-|tan da voi, da|voi mia vi-|ta, Co- me vi-|
 d2 B4 B2 d4 c2 d2- | d2 B2 A8 A4 | z4 d4 c6 f2- | f2 e4 e2 c4 B4 | z4 z2 f4 e4 d2- | %17
w: * vro lon- tan da voi|_ mia vi- ta,|Por- ge- te|_ dun- que a- i- ta,|Por- ge- te|
 d2 c4 B2 B2 ^A2 B4 | z4 B8 A4 | A8 z8 | d12 c4 | e6 dc B8 | z4 d8 B4 | A8 F4 B4- | B4 A4 B8- | %25
w: _ dun- que a- i- * ta,|Al mio|cor,|Al mio|cor _ _ _|in me|mor- to, in|_ me mor-|
 B8 ^A8 | z2 B2 c2 d2 d4 d2 B2 | c2 d2 d4 d8 | z8 z4 z2 e2- | e2 d2 c4 B2 B2 A4 | z4 B4 ^A4 B4 | %31
w: * to|et vi- vo in vo- i, et|vi- vo in vo- i,|Trans-|* for- man- do- v'in me|che lun- gi|
 G2 A2 B2 G2 =c4 B4 | z4 B6 B2 A4 | B2 c2 d2 c2 B2 A2 B4- | B4 B4 G8 | F8 z4 A4 | c4 c4 d8 | %37
w: po- * * * * i,|Qua- si ve-|nu- * * * * * *|* to al- me-|no, ve-|nu- to al- me-|
 c8 z4 e4 | d4 c4 z4 B4 | B4 ^A4 B2 c2 d2 c2 | B2 A2 G4 F4 G4 | F2 G2 A2 B2 c4 d4 | e8 f4 d4- | %43
w: no, Ter-|re- te, Ter-|re- te in vi- * * *|* * * ta, Ter-|re- * * * * te in|vi- ta il|
 d4 A4 A8 | A4 F4 A6 GF | G4 G2 B4 d2 c4 | d4 c4 B8 | ^A16 |] %48
w: _ mio car-|cer ter- re- * *|* no, il mio car-|cer ter- re-|no.|
V:2
 z16 |[K:D][K:treble] z4 F6 E2 D4 | B,2 C2 D4 C4 z4 | z4 F6 E2 D4 | B,2 C2 D4 C4 z2 F2- | %5
w: |Se'l pen- sar|di par- ti- re,|Mi con- du-|ce al mo- ri- re, Mi|
 F2 E2 F4 A3 G F2 D2 | G4 F6 ED E4 | F16 | z4 F4 D6 D2 | C4 F4 F4 D4 | F2 F2 A6 GF G2 F2 | %11
w: _ con- du- ce al _ _ mo-|ri- * * * *|re,|Co- me vi-|vro lon- tan da|voi mia vi- * * * *|
 A4 E4 z4 z2 F2 | G6 G2 F2 ^G2 A4 | D4 F6 E2 E4 | F4 z2 F2 A6 A2 | A6 G2 F4 F4 | z4 F4 A6 A2 | %17
w: * ta, Co-|me vi- vro lon- tan|da voi mia vi-|ta, Por- ge- te|dun- que a- i- ta,|Por- ge- te|
 A6 G2 F4 F4 | z4 D4 B,4 F4- | F2 ED E4 G8- | G4 F4 A6 GF | E8 z8 | F12 G4 | E8 D8 | G4 F8 E4 | %25
w: dun- que a- i- ta,|Al mio cor,|_ _ _ _ Al|_ mio cor, _ _|_|Al mio|cor in|me mor- to|
 z16 | F4 A2 B2 A4 B2 F2 | A2 B2 A4 B8 | z8 A6 E2 | F4 E2 F2 B,4 z2 E2 | F4 G4 E4 D4 | z8 z4 D4- | %32
w: |et vi- vo in vo- i, et|vi- vo in vo- i,|Trans- for-|man- do- v'in me che|lun- gi po- i,|Qua-|
 D2 D2 E4 F8- | F4 D4 G8 | F8 z4 E4 | A,6 D2 B,3 C D4 | C4 F4 F8- | F8 D4 G4 | F6 E2 D4 G4 | %39
w: * si ve- nu-|* to al- me-|no, ve-|nu- to al- me- * *|no, Ter- re-|* te, Ter-|re- * * te in|
 F8 F4 D4 | D4 E4 A,4 B,4 | z4 D4 C4 F4 | E4 A4 A2 G2 F2 EF | G4 F4 z4 E4 | F4 D4 E4 F2 F2- | %45
w: vi- ta, Ter-|re- te in vi- ta|il mio car-|cer ter- re- * * * *|* no, il|mio car- cer ter- re-|
 F2 ED E2 DE F8 | F16- | F16 |] %48
w: |no.|_|
V:3
 z16 |[K:D][K:treble-8] z16 | z4 f6 e2 d4 | B2 c2 d4 c4 z4 | z4 f6 e2 d4 | B2 c2 d4 c4 z2 B2- | %6
w: ||Se'l pen- sar|di par- ti- re,|Mi con- du-|ce al mo- ri- re, Mi|
 B2 e2 A8 B3 c | d4 c4 z8 | z4 d4 B6 B2 | A4 d4 B4 f4 | d4 e4 f4 e2 d2 | e8 f4 d4 | %12
w: _ con- du- ce al mo-|ri- re,|Co- me vi-|vro lon- tan da|voi mia vi- * *|* ta, Co-|
 B6 e2 d2 e2 f4 | B2 B2 c2 d4 cB c4 | d4 z2 f4 e4 d2- | d2 c4 B2 B2 ^A2 B4 | z4 d4 c6 f2- | %17
w: me vi- vro lon- tan|da voi mia vi- * * *|ta, Por- ge- te|_ dun- que a- i- * ta,|Por- ge- te|
 f2 e4 e2 c4 B4 | z8 d8- | d4 c4 e6 dc | B8 z8 | z8 e6 e2 | A8 B4 G4 | =c8 B8 | d12 B4 | d8 c8 | %26
w: _ dun- que a- i- ta,|Al|_ mio cor, _ _|_|Al mio|cor in me|mor- to,|in me|mor- to|
 z2 d2 e2 g2 g2 f2 g2 d2 | e2 g2 g2 f2 g4 z4 | z2 f4 e2 d4 c2 c2 | B4 z4 z4 e4 | ^d4 e4 c4 B4 | %31
w: et vi- vo in vo- * i, et|vi- vo in vo- * i,|Trans- for- man- do- v'in|me che|lun- gi po- i,|
 z4 e6 f2 g4 | f4 B4 d4 c4 | B2 A2 B2 c2 d2 cB e4- | e2 d2 d8 c4 | d4 z2 A2 d4 f4 | e4 A4 z4 B4 | %37
w: Qua- * *|si ve- nu- to al-|me- * * * * * * *||no, ve- nu- to al-|me- no, Ter-|
 B4 ^A4 B4 E4 | F8 G2 A2 B2 c2 | d4 c4 B6 A2 | G2 A2 B2 c2 d6 e2 | f8 e4 d4- | d2 c2 c4 d4 A4 | %43
w: re- te in vi- ta,|Ter- re- * * *|* te in vi- *||* ta il|_ mio car- cer ter-|
 B2 c2 d2 cB A2 B2 c4- | c2 BA B4 c4 A2 B2- | B2 B2 G4 F2 B3 B A2 | B4 c4 d8 | c16 |] %48
w: re- * * * * * * *|* * * * no, Ter- re-|* te in vi- ta il mio car-|cer ter- re-|no.|
V:4
 z16 |[K:D] z16 | B,6 B,2 ^A,4 B,2 F,2 | G,4 F,4 z8 | B,6 B,2 ^A,4 B,2 F,2 | G,4 F,4 F,6 G,2 | %6
w: ||Se'l pen- sar di par-|ti- re,|Mi con- du- ce al mo-|ri- re, Mi con-|
 E,4 F,6 F,2 G,4 | F,8 z4 D,4 | F,6 F,2 G,4 D,4 | F,4 B,,4 D,8- | D,4 C,4 B,,8 | A,,4 A,4 F,6 B,2 | %12
w: du- ce al mo- ri-|re, Co-|me vi- vro lon-|tan da voi|_ mia vi-|ta, Co- me vi-|
 G,4 E,4 B,4 F,4 | G,4 F,4 A,8 | D,4 z2 B,2 A,6 D,2 | A,4 E,4 F,4 B,,4 | z4 B,4 A,6 D,2 | %17
w: vro lon- tan da|voi mia vi-|ta, Por- ge- te|dun- que a- i- ta,|Por- ge- te|
 A,4 E,4 F,4 B,,4 | G,12 F,4 | A,6 G,F, E,8 | z16 | A,12 G,4 | F,4 D,8 E,4 | A,,8 B,,4 G,4- | %24
w: dun- que a- i- ta,|Al mio|cor, _ _ _||Al mio|cor in me|mor- to, in|
 G,4 D,4 G,8 | F,16 | z2 B,2 A,2 G,2 D4 G,2 B,2 | A,2 G,2 D4 G,4 B,4- | B,2 F,2 G,4 F,2 D,2 A,4 | %29
w: _ me mor-|to|et vi- vo in vo- i, et|vi- vo in vo- i, Trans-|* for- man- do- v'in me|
 z4 A,4 ^G,4 A,4 | F,4 E,4 z8 | G,6 G,2 A,4 B,4- | B,4 G,4 F,4 F,4 | z4 G,6 G,2 E,4 | %34
w: che lun- gi|po- i,|Qua- si ve- nu-|* to al- me- no,|Qua- si ve-|
 B,4 B,,4 E,8 | D,8 z4 D,4 | A,4 F,4 B,8 | F,8 z4 B,4 | B,4 ^A,4 B,4 E,4 | z4 F,4 B,,4 G,4- | %40
w: nu- to al- me-|no, Ter-|re- te in vi-|ta, Ter-|re- te in vi- ta,|Ter- re- te in|
 G,2 F,2 E,4 D,2 C,2 B,,2 C,2 | D,2 E,2 F,2 G,2 A,8- | A,8 D,8 | z4 D,8 A,,4 | D,8 C,4 D,4 | %45
w: _ _ _ vi- * * *||* ta|il mio|car- cer ter-|
 E,8 B,,4 F,4 | B,,4 ^A,,4 B,,8 | F,16 |] %48
w: re- no, car-|cer ter- re-|no.|

